X: 4151
T: the Lassie lost her Silken Snood
O: Original Sett
%R: air, strathspey
N: This is version 1, for ABC software that doesn't understand crescendo symbols.
B: Niel Gow & Sons "A Fourth Collection of Strathspey Reels, etc." v.4 p.15 #1
Z: 2022 John Chambers <jc:trillian.mit.edu>
M: C
L: 1/16
Q: "Slow"
K: Eb
% - - - - - - - - - -
% Voice 1 reformatted for _ _-bar lines, for compactness and proofreading.
V: 1 staves=2
(EF) |\
~G2B2 (AG)(FE) F2GB c3c | TB3c {c}B2AG B3G E2(EF) |\
~G3B (AG)(FE) {G}F2GB c3c | TB3c (Bc)eG B3GE2 :|
|: (B/c/d) |\
e3f (fe)(dc) ({f}ed)cB B2cd | ~e3f {f}e2dc f3d B2cd |\
"^cres. . . ."{f}e3g (fe)dc {c}B2G2 Hg3f | !p!{f}e3c (cB)e>G ({G}TF4{EF}[E2B,2G,2]) :|
% - - - - - - - - - -
% Voice 2 preserves the staff layout in the book.
V: 2 clef=bass middle=d
z2 | E2e2 E2e2 d2e2 A2a2 | g2a2 g2fe E2e2 E2z2 | e3_d' c'bag a2g2 a2A2 | G2A2 {B}B4 E2e2 E2 :||: z2 | e4 e'4 
b4- b2a2 | g2e2 f2=a2 b2f2 B2_a2 | "^cres. . . ."g2e2 dcBA G2E2 {E}He3d | !p!c2A2 G2E2 B2B,2E2 :|
